X:68
M:2/4
L:1/8
K:A
ce/c/ BA | FA AB | c2 ec | BA [1]A :|[2] A2 | 
|: af ec | ec BA | af ec | B/c/d e2 | 
af ec | ec BA | c2 ec | BA A2 :|| 

